X: 37481
T: Sligo Chorus, The
R: reel
M: 4/4
K: Dmajor
AG|(3FED AD BDAD|(3FED (3ABc d2 AG|(3FED AD BG ~G2|BdcA GBAG|
(3FED AD BDAD|(3FED (3ABc d2 (3ABc|dfec dc (3ABc|dcAF G2||
AB|cABG ~A2 AB|cABG A2 ed|cBcd eaaf|gedc dfed|
cABG ~A2 AB|cABG A2 (3ABc|dfec dc (3ABc|dcAF G2||

